!!!OTL@@DE: Nur in Deutschland!
!!!ONB: Auf der Wanderung
!!!ONB: Mel. vom Dichter des Liedes
!!!ODT: 1824///-1844///
!!!OMD: M&auml;ssig geschwind
!!!LYR: Fallersleben, Hoffmann von
!!!LDT: 1824
!!!OCL: Erk, Ludwig
!!!GCO: Deutscher Liederschatz, Band 1
**kern	**kern	**kern
*staff3	*staff2	*staff1
*Ipiano	*Ipiano	*Ivox
*>[A,B,B]	*>[A,B,B]	*>[A,B,B]
*>norep[A,B]	*>norep[A,B]	*>norep[A,B]
*>A	*>A	*>A
*clefF4	*clefG2	*clefG2
*k[b-]	*k[b-]	*k[b-]
*F:	*F:	*F:
*M3/4	*M3/4	*M3/4
*MM72	*MM72	*MM72
4r	8f/L	8f/
.	8a/J	8a/
=1	=1	=1
4FF/ 4F/	4a\ 4cc\	4cc\
4F\ 4c\	4a\ 4ff\	4ff\
*^	*^	*
8B-/L	4F\	(8ee/L	4b-\	8ee\
8d/J	.	8dd/J)	.	8dd\
*v	*v	*	*	*
*	*v	*v	*
=2	=2	=2
2F\ 2f\	8.b-\ (8.dd\L	8.dd\
.	16a\ 16cc\k)	16cc\
.	8a\ 8cc\	8cc\
.	8b-\ (8dd\	8dd\
4r	8a\ 8cc\	8cc\
.	8g\ 8b-\J)	8b-\
=3	=3	=3
*^	*^	*
(8C/L	2C\	(8a/L	4f\	8a\L
8F/J	.	8dd/J	.	(8dd\J
*	*	*v	*v	*
4A/)	.	4.f/ 4.cc/)	4.cc\)
8G/L	4C\	.	.
8B-/J	.	8e/	8e/
=4	=4	=4	=4
(4B-/	2F;\	(4e/ 4g/	4g/
4A;/)	.	4f;/)	4f;/
*v	*v	*	*
4r	8g/ 8b-/L	8b-\
.	8f/ 8a/J	8a/
=5	=5	=5
4C/	(8f/ 8a/L	(8a/L
.	8e/) 8g/J	8g/J)
4c\	4e/ 4g/	4g/
4r	8b-\ 8dd\L	8dd\
.	8a\ 8cc\J	8cc\
=6	=6	=6
(8c\L	(4g/ 4b-/	(4b-\
16d\L	.	.
16e\JJ	.	.
8f\L	4f/) 4a/	4a/)
8c\	.	.
*	*^	*
8A\	(8cc/L	4f\	8cc\
8F\J)	8a/J)	.	8a/
*	*v	*v	*
=7	=7	=7
4C/	(8f/ 8a/L	(8a/L
.	8e/) 8g/J	8g/J)
*	*^	*
4c\	(8g/L	4e\	(8g/L
.	8b-/J)	.	8b-/J)
4C/	8dd/L	4e\ 4b-\	8dd\
.	8cc/J	.	8cc\
=8	=8	=8	=8
2F;\ 2c;\	(4b-/	2f\	(4b-\
.	4a;/)	.	4a;/)
*	*v	*v	*
=!|:	=!|:	=!|:
*>B	*>B	*>B
8E\L	(16g/ 16cc/LL	16cc\LL
.	16b-/	16b-\JJ
8C\J	16e/ 16a/	16a/LL
.	16g/JJ)	16g/JJ
=9	=9	=9
*	*^	*
4F\	(8.a/L	4f\	(8.a^\L
.	16ff/Jk)	.	16ff\Jk)
4F;\ 4c;\	4ff;/	4f;\ 4a;\	4ff;\
*	*v	*v	*
(16F\LL	8f/L	8f/
16E-\	.	.
16D\	8f/J	8f/
16C\JJ)	.	.
=10	=10	=10
4BB-/	(8.d/ 8.f/L	(8.f/L
.	16f/) 16dd/Jk	16dd/Jk)
8B-;\	8f;/ 8dd;/	8dd;\
8F#\L	8e-/ 8a/ 8cc/L	8cc\
8G\	8d/ 8g/ 8b-/	8b-\
8A\J	8c/ 8fn/ 8a/J	8a/
=11	=11	=11
*	*^	*
4B-\	(8g/L	4d\	(8g\L
.	8dd/J	.	8dd\J
4C\ 4A\	4.cc/)	4.c\ 4.f\	4.cc\)
*^	*	*	*
8G/L	4C\	.	.	.
8B-/J	.	8e/	8c\	8e/
=12	=12	=12	=12	=12
(4B-;/	2F\	4e/ (4g/	2c\	4g/
4A;/)	.	&(4f;/&))	.	4f;/
*v	*v	*	*	*
*	*v	*v	*
==:|!	==:|!	==:|!
*-	*-	*-
!!!ENC: Craig Stuart Sapp
!!!END: 2004/06/28/
!!!EFL: 144/651
